X: 26282
T: Melter
R: jig
M: 6/8
K: Fmajor
GAc cAF|zCD FGA|Ad/e/f ecG|{/G}AcG {/A}GFG|
GAc cAF|zCD FGA|A2A def|ecG GFF:|
|:gab c'af|cfa bac'-|c'af dcG|{/G}AcG {/A}GFG|
cfa bac'-|c'ba fGA|Afa baf|cdG AcF:|

